X: 33
T: Lndlerische Tnze (O, 1779)
M:3/4
L:1/8
C:trad
S:Sonnleithnersammlung 1819, "Wer tanzt nach meiner Pfeife"
K:D
"1." AG|GFFDcB|B4  AF|EGGE FD|E4  AG|
GFFDcB|B4  AF|EGG2 C2 |D4  :|
"2." A2 |B2 edcA|d2 f2 d2 |B2 edcA|d2 AGFA|
B2 edcA|d2 f2 d2 |B2 edcA|d4  :|
"3." f2|agef gb|afAdf2 |agef gb|a4  f2 |
agef gb|afAdf2 |agef ge|d4  :|
"4." DFAdf2 |ageba2 |DFAdf2|agecd2 |
DFAdf2 |ageba2 |DFAdf2|agecd2 :|
"5." AG|FAcd dA|cefg ge|dfa2 AG|FAcd dA|cefg ge|d4:|
